src/pos-icons/z-wave.svg

<svg height="24" viewBox="0 0 24 24" width="24" xmlns="http://www.w3.org/2000/svg"><path d="m16.3 10.58c-3.16 0-5.7 2.55-5.7 5.7s2.55 5.72 5.7 5.72 5.7-2.57 5.7-5.72-2.55-5.7-5.7-5.7m1.7 8.5h-4.81l2.62-4.08h-2.5l1.09-1.77h4.78l-2.55 4.05h2.55zm-1.7-15.15v-1.93c-7.89 0-14.3 6.42-14.3 14.31h1.92c.02-6.85 5.58-12.38 12.38-12.38m0 3.81v-1.92c-5.8 0-10.49 4.71-10.49 10.49h1.92c.02-4.73 3.86-8.57 8.57-8.57"/></svg>

<?xml version="1.0" encoding="UTF-8"?><!DOCTYPE svg PUBLIC "-//W3C//DTD SVG 1.1//EN" "http://www.w3.org/Graphics/SVG/1.1/DTD/svg11.dtd"><svg xmlns="http://www.w3.org/2000/svg" xmlns:xlink="http://www.w3.org/1999/xlink" version="1.1" id="mdi-z-wave" width="24" height="24" viewBox="0 0 24 24"><path d="M16.3,10.58C13.14,10.58 10.6,13.13 10.6,16.28C10.6,19.43 13.15,22 16.3,22C19.45,22 22,19.43 22,16.28C22,13.13 19.45,10.58 16.3,10.58M18,19.08H13.19L15.81,15H13.31L14.4,13.23H19.18L16.63,17.28H19.18L18,19.08M16.3,3.93V2C8.41,2 2,8.42 2,16.31H3.92C3.94,9.46 9.5,3.93 16.3,3.93M16.3,7.74V5.82C10.5,5.82 5.81,10.53 5.81,16.31H7.73C7.75,11.58 11.59,7.74 16.3,7.74" /></svg>
